assets/Q_hearts.svg

<svg width="822" height="1146" fill="none" xmlns="http://www.w3.org/2000/svg"><rect y="24" width="822" height="1122" rx="50" fill="#F1F7EE"/><path d="m246.151 1112.1-2.4.1c-9.266 0-16.433-2.9-21.5-8.7-5-5.87-7.5-14.43-7.5-25.7 0-5.4.667-10.23 2-14.5 1.4-4.33 3.134-7.83 5.2-10.5a28.198 28.198 0 0 1 7.5-6.6c5.067-3.2 10.534-4.8 16.4-4.8 2.467 0 4.834.2 7.1.6 2.267.4 4.834 1.3 7.7 2.7 2.867 1.4 5.3 3.27 7.3 5.6 2.067 2.27 3.8 5.53 5.2 9.8 1.467 4.27 2.2 9.23 2.2 14.9 0 8.4-1.5 15.43-4.5 21.1-3 5.6-7.1 9.8-12.3 12.6 1.267 4.6 4.3 8.97 9.1 13.1.734.6.8 1.3.2 2.1l-2.3 2.8c-.333.4-.7.6-1.1.6-.333 0-.7-.1-1.1-.3-8.8-4.53-14.533-9.5-17.2-14.9Zm-1.2-9.3c11.934 0 17.9-8.77 17.9-26.3s-6.066-26.3-18.2-26.3c-4.266 0-7.8 1.17-10.6 3.5-2.733 2.33-4.633 5.23-5.7 8.7-1.066 3.4-1.6 7.37-1.6 11.9 0 19 6.067 28.5 18.2 28.5Zm85.738.3h4.4c1 0 1.5.5 1.5 1.5v4.9c0 1-.5 1.5-1.5 1.5h-11.2c-.8 0-1.3-.5-1.5-1.5l-.9-5.6c-4.266 5.53-9.866 8.3-16.8 8.3-10.8 0-16.2-5.67-16.2-17v-25.5h-5.3c-1 0-1.5-.5-1.5-1.5v-5.2c0-1 .5-1.5 1.5-1.5h15c1 0 1.5.5 1.5 1.5v29.2c0 4 .5 6.87 1.5 8.6 1.067 1.67 3.267 2.5 6.6 2.5 3.4 0 6.2-1 8.4-3s3.3-4.27 3.3-6.8v-23.8h-6.3c-1 0-1.5-.5-1.5-1.5v-5.2c0-1 .5-1.5 1.5-1.5h16c1 0 1.5.5 1.5 1.5v40.1Zm35.364 9.1c-7.934 0-13.767-2.3-17.5-6.9-3.667-4.67-5.5-10.8-5.5-18.4 0-7.67 1.966-14 5.9-19 3.933-5 9.6-7.5 17-7.5 3.666 0 6.8.7 9.4 2.1 2.666 1.33 4.7 3.17 6.1 5.5 2.666 4.53 4 9.77 4 15.7 0 2.8-.134 4.33-.4 4.6-.267.27-.767.4-1.5.4h-29.4c.333 4.8 1.5 8.53 3.5 11.2 2.066 2.6 5.6 3.9 10.6 3.9 3.666 0 7.433-.87 11.3-2.6.933-.47 1.6-.2 2 .8l1.9 4.6c.333.8.033 1.47-.9 2-4.4 2.4-9.9 3.6-16.5 3.6Zm-11.9-30.9h20.8c.133-8.33-3.134-12.5-9.8-12.5-3.934 0-6.734 1.27-8.4 3.8-1.6 2.47-2.467 5.37-2.6 8.7Zm38.949-5.5c0-4.4 1.7-8.07 5.1-11 3.4-2.93 7.7-4.4 12.9-4.4s9.7.6 13.5 1.8c.933.27 1.4.87 1.4 1.8v10.6c0 1-.5 1.5-1.5 1.5h-5.8c-1.067 0-1.5-.5-1.3-1.5l.5-5.1c-2-1.07-4.2-1.6-6.6-1.6-5.333 0-8 1.87-8 5.6 0 1.93.867 3.47 2.6 4.6 1.733 1.13 3.833 2.07 6.3 2.8a81.61 81.61 0 0 1 7.4 2.4c2.533.87 4.667 2.4 6.4 4.6 1.733 2.13 2.6 4.87 2.6 8.2 0 5.07-1.767 9.03-5.3 11.9-3.533 2.8-8.5 4.2-14.9 4.2-4.467 0-9.167-.67-14.1-2-.867-.27-1.3-.9-1.3-1.9v-10.6c0-1 .5-1.5 1.5-1.5h5.8c1 0 1.467.5 1.4 1.5l-.3 5.2c1.8 1.33 4.367 2 7.7 2 5.933 0 8.9-2.1 8.9-6.3 0-2.13-.867-3.8-2.6-5-1.667-1.27-3.733-2.23-6.2-2.9a184.3 184.3 0 0 1-7.3-2.2c-2.467-.87-4.567-2.33-6.3-4.4-1.667-2.13-2.5-4.9-2.5-8.3Zm57.464-6.1v25.2c0 3.13.4 5.4 1.2 6.8.8 1.4 2.3 2.1 4.5 2.1s4.333-.47 6.4-1.4c.733-.27 1.267 0 1.6.8l1.8 4.6c.067.2.1.5.1.9 0 .33-.333.7-1 1.1-3.2 1.6-7 2.4-11.4 2.4-5.933 0-9.833-1.53-11.7-4.6-1.333-2-2.1-3.93-2.3-5.8-.267-2.53-.4-5.2-.4-8v-24.1h-5.7c-1 0-1.5-.5-1.5-1.5v-5.2c0-1 .5-1.5 1.5-1.5h5.7V1048c0-1 .5-1.5 1.5-1.5h8.2c1 0 1.5.5 1.5 1.5v13.5h10.1c1 0 1.5.5 1.5 1.5v5.2c0 1-.5 1.5-1.5 1.5h-10.1Zm37.614 33.4h6.3c1 0 1.5.5 1.5 1.5v4.9c0 1-.5 1.5-1.5 1.5h-23.8c-1 0-1.5-.5-1.5-1.5v-4.9c0-1 .5-1.5 1.5-1.5h6.3v-33.4h-5.4c-1 0-1.5-.5-1.5-1.5v-5.2c0-1 .5-1.5 1.5-1.5h15.1c1 0 1.5.5 1.5 1.5v40.1Zm-12.1-50.5c-1.267-1.33-1.9-3.03-1.9-5.1s.633-3.77 1.9-5.1c1.333-1.4 3.067-2.1 5.2-2.1 2.2 0 3.933.7 5.2 2.1 1.333 1.33 2 3.03 2 5.1s-.667 3.77-2 5.1c-1.333 1.33-3.1 2-5.3 2-2.133 0-3.833-.67-5.1-2Zm24.395 34.4c0-5 .766-9.33 2.3-13 1.533-3.67 3.533-6.43 6-8.3 4.733-3.53 9.866-5.3 15.4-5.3 4.066 0 7.5.63 10.3 1.9 2.8 1.27 4.966 2.73 6.5 4.4 1.6 1.67 2.933 4.07 4 7.2 1.133 3.13 1.7 6.8 1.7 11 0 8.93-2.267 15.73-6.8 20.4-4.467 4.6-10.2 6.9-17.2 6.9s-12.467-2.1-16.4-6.3c-3.867-4.27-5.8-10.57-5.8-18.9Zm23 17c4 0 6.9-1.47 8.7-4.4 1.866-3 2.8-7.43 2.8-13.3 0-5.87-.934-10.27-2.8-13.2-1.8-3-4.767-4.5-8.9-4.5-7.667 0-11.5 5.4-11.5 16.2 0 12.8 3.9 19.2 11.7 19.2Zm29.222-35.7v-5.3c0-1 .5-1.5 1.5-1.5h13.6c.867 0 1.4.5 1.6 1.5l.9 5.8c3.734-5.6 9.067-8.4 16-8.4 10.334 0 15.5 5.67 15.5 17v25.7h5.8c1 0 1.5.5 1.5 1.5v4.9c0 1-.5 1.5-1.5 1.5h-21.8c-1 0-1.5-.5-1.5-1.5v-4.9c0-1 .5-1.5 1.5-1.5h4.8v-20.7c0-4.2-.533-7.27-1.6-9.2-1.066-1.93-3.266-2.9-6.6-2.9-3.333 0-6.1 1-8.3 3-2.2 2-3.3 4.27-3.3 6.8v23h6.2c1 0 1.5.5 1.5 1.5v4.9c0 1-.5 1.5-1.5 1.5h-22.7c-1 0-1.5-.5-1.5-1.5v-4.9c0-1 .5-1.5 1.5-1.5h5.3v-33.4h-5.4c-1 0-1.5-.47-1.5-1.4ZM133.243 300.3l-7.2.3c-27.8 0-49.3-8.7-64.5-26.1-15-17.6-22.5-43.3-22.5-77.1 0-16.2 2-30.7 6-43.5 4.2-13 9.4-23.5 15.6-31.5 6.4-8 13.9-14.6 22.5-19.8 15.2-9.6 31.6-14.4 49.2-14.4 7.4 0 14.5.6 21.3 1.8 6.8 1.2 14.5 3.9 23.1 8.1 8.6 4.2 15.9 9.8 21.9 16.8 6.2 6.8 11.4 16.6 15.6 29.4 4.4 12.8 6.6 27.7 6.6 44.7 0 25.2-4.5 46.3-13.5 63.3-9 16.8-21.3 29.4-36.9 37.8 3.8 13.8 12.9 26.9 27.3 39.3 2.2 1.8 2.4 3.9.6 6.3l-6.9 8.4c-1 1.2-2.1 1.8-3.3 1.8-1 0-2.1-.3-3.3-.9-26.4-13.6-43.6-28.5-51.6-44.7Zm-3.6-27.9c35.8 0 53.7-26.3 53.7-78.9 0-52.6-18.2-78.9-54.6-78.9-12.8 0-23.4 3.5-31.8 10.5-8.2 7-13.9 15.7-17.1 26.1-3.2 10.2-4.8 22.1-4.8 35.7 0 57 18.2 85.5 54.6 85.5ZM418.8 730.4l-9.6.4c-37.067 0-65.733-11.6-86-34.8-20-23.467-30-57.733-30-102.8 0-21.6 2.667-40.933 8-58 5.6-17.333 12.533-31.333 20.8-42 8.533-10.667 18.533-19.467 30-26.4 20.267-12.8 42.133-19.2 65.6-19.2 9.867 0 19.333.8 28.4 2.4 9.067 1.6 19.333 5.2 30.8 10.8 11.467 5.6 21.2 13.067 29.2 22.4 8.267 9.067 15.2 22.133 20.8 39.2 5.867 17.067 8.8 36.933 8.8 59.6 0 33.6-6 61.733-18 84.4-12 22.4-28.4 39.2-49.2 50.4 5.067 18.4 17.2 35.867 36.4 52.4 2.933 2.4 3.2 5.2.8 8.4l-9.2 11.2c-1.333 1.6-2.8 2.4-4.4 2.4-1.333 0-2.8-.4-4.4-1.2-35.2-18.133-58.133-38-68.8-59.6Zm-4.8-37.2c47.733 0 71.6-35.067 71.6-105.2 0-70.133-24.267-105.2-72.8-105.2-17.067 0-31.2 4.667-42.4 14-10.933 9.333-18.533 20.933-22.8 34.8-4.267 13.6-6.4 29.467-6.4 47.6 0 76 24.267 114 72.8 114Z" fill="#000"/><path d="m344.492 364.908 28.663 51.219c30.873-9.103 50.551-7.778 87.639 0l28.662-51.218-38.218 27.926L439.377 342l-22.403 46.745L394.571 342l-11.861 50.834-38.218-27.926ZM172.289 354.69a26.362 26.362 0 0 0-28.682-5.691 26.3 26.3 0 0 0-8.537 5.691l-5.071 5.057-5.071-5.057a26.356 26.356 0 0 0-18.61-7.687 26.355 26.355 0 0 0-18.61 7.687A26.21 26.21 0 0 0 80 373.249a26.21 26.21 0 0 0 7.708 18.559l5.071 5.058 33.689 33.597a5 5 0 0 0 7.061 0l33.689-33.597 5.071-5.058a26.222 26.222 0 0 0 5.707-8.514 26.184 26.184 0 0 0-5.707-28.604Z" fill="#F7081D"/><mask id="a" style="mask-type:alpha" maskUnits="userSpaceOnUse" x="130" y="347" width="50" height="85"><path fill="#D9D9D9" d="M130 347h50v84.916h-50z"/></mask><g mask="url(#a)"><path d="M172.289 354.69a26.362 26.362 0 0 0-28.682-5.691 26.3 26.3 0 0 0-8.537 5.691l-5.071 5.057-5.071-5.057a26.356 26.356 0 0 0-18.61-7.687 26.355 26.355 0 0 0-18.61 7.687A26.21 26.21 0 0 0 80 373.249a26.21 26.21 0 0 0 7.708 18.559l5.071 5.058 33.689 33.597a5 5 0 0 0 7.061 0l33.689-33.597 5.071-5.058a26.222 26.222 0 0 0 5.707-8.514 26.184 26.184 0 0 0-5.707-28.604Z" fill="#DC1021"/></g></svg>

<svg width="822" height="1146" viewBox="0 0 822 1146" fill="none" xmlns="http://www.w3.org/2000/svg">
<rect y="24" width="822" height="1122" rx="50" fill="#F1F7EE"/>
<path d="M246.151 1112.1L243.751 1112.2C234.485 1112.2 227.318 1109.3 222.251 1103.5C217.251 1097.63 214.751 1089.07 214.751 1077.8C214.751 1072.4 215.418 1067.57 216.751 1063.3C218.151 1058.97 219.885 1055.47 221.951 1052.8C224.085 1050.13 226.585 1047.93 229.451 1046.2C234.518 1043 239.985 1041.4 245.851 1041.4C248.318 1041.4 250.685 1041.6 252.951 1042C255.218 1042.4 257.785 1043.3 260.651 1044.7C263.518 1046.1 265.951 1047.97 267.951 1050.3C270.018 1052.57 271.751 1055.83 273.151 1060.1C274.618 1064.37 275.351 1069.33 275.351 1075C275.351 1083.4 273.851 1090.43 270.851 1096.1C267.851 1101.7 263.751 1105.9 258.551 1108.7C259.818 1113.3 262.851 1117.67 267.651 1121.8C268.385 1122.4 268.451 1123.1 267.851 1123.9L265.551 1126.7C265.218 1127.1 264.851 1127.3 264.451 1127.3C264.118 1127.3 263.751 1127.2 263.351 1127C254.551 1122.47 248.818 1117.5 246.151 1112.1ZM244.951 1102.8C256.885 1102.8 262.851 1094.03 262.851 1076.5C262.851 1058.97 256.785 1050.2 244.651 1050.2C240.385 1050.2 236.851 1051.37 234.051 1053.7C231.318 1056.03 229.418 1058.93 228.351 1062.4C227.285 1065.8 226.751 1069.77 226.751 1074.3C226.751 1093.3 232.818 1102.8 244.951 1102.8ZM330.689 1103.1H335.089C336.089 1103.1 336.589 1103.6 336.589 1104.6V1109.5C336.589 1110.5 336.089 1111 335.089 1111H323.889C323.089 1111 322.589 1110.5 322.389 1109.5L321.489 1103.9C317.223 1109.43 311.623 1112.2 304.689 1112.2C293.889 1112.2 288.489 1106.53 288.489 1095.2V1069.7H283.189C282.189 1069.7 281.689 1069.2 281.689 1068.2V1063C281.689 1062 282.189 1061.5 283.189 1061.5H298.189C299.189 1061.5 299.689 1062 299.689 1063V1092.2C299.689 1096.2 300.189 1099.07 301.189 1100.8C302.256 1102.47 304.456 1103.3 307.789 1103.3C311.189 1103.3 313.989 1102.3 316.189 1100.3C318.389 1098.3 319.489 1096.03 319.489 1093.5V1069.7H313.189C312.189 1069.7 311.689 1069.2 311.689 1068.2V1063C311.689 1062 312.189 1061.5 313.189 1061.5H329.189C330.189 1061.5 330.689 1062 330.689 1063V1103.1ZM366.053 1112.2C358.119 1112.2 352.286 1109.9 348.553 1105.3C344.886 1100.63 343.053 1094.5 343.053 1086.9C343.053 1079.23 345.019 1072.9 348.953 1067.9C352.886 1062.9 358.553 1060.4 365.953 1060.4C369.619 1060.4 372.753 1061.1 375.353 1062.5C378.019 1063.83 380.053 1065.67 381.453 1068C384.119 1072.53 385.453 1077.77 385.453 1083.7C385.453 1086.5 385.319 1088.03 385.053 1088.3C384.786 1088.57 384.286 1088.7 383.553 1088.7H354.153C354.486 1093.5 355.653 1097.23 357.653 1099.9C359.719 1102.5 363.253 1103.8 368.253 1103.8C371.919 1103.8 375.686 1102.93 379.553 1101.2C380.486 1100.73 381.153 1101 381.553 1102L383.453 1106.6C383.786 1107.4 383.486 1108.07 382.553 1108.6C378.153 1111 372.653 1112.2 366.053 1112.2ZM354.153 1081.3H374.953C375.086 1072.97 371.819 1068.8 365.153 1068.8C361.219 1068.8 358.419 1070.07 356.753 1072.6C355.153 1075.07 354.286 1077.97 354.153 1081.3ZM393.102 1075.8C393.102 1071.4 394.802 1067.73 398.202 1064.8C401.602 1061.87 405.902 1060.4 411.102 1060.4C416.302 1060.4 420.802 1061 424.602 1062.2C425.535 1062.47 426.002 1063.07 426.002 1064V1074.6C426.002 1075.6 425.502 1076.1 424.502 1076.1H418.702C417.635 1076.1 417.202 1075.6 417.402 1074.6L417.902 1069.5C415.902 1068.43 413.702 1067.9 411.302 1067.9C405.969 1067.9 403.302 1069.77 403.302 1073.5C403.302 1075.43 404.169 1076.97 405.902 1078.1C407.635 1079.23 409.735 1080.17 412.202 1080.9C414.669 1081.57 417.135 1082.37 419.602 1083.3C422.135 1084.17 424.269 1085.7 426.002 1087.9C427.735 1090.03 428.602 1092.77 428.602 1096.1C428.602 1101.17 426.835 1105.13 423.302 1108C419.769 1110.8 414.802 1112.2 408.402 1112.2C403.935 1112.2 399.235 1111.53 394.302 1110.2C393.435 1109.93 393.002 1109.3 393.002 1108.3V1097.7C393.002 1096.7 393.502 1096.2 394.502 1096.2H400.302C401.302 1096.2 401.769 1096.7 401.702 1097.7L401.402 1102.9C403.202 1104.23 405.769 1104.9 409.102 1104.9C415.035 1104.9 418.002 1102.8 418.002 1098.6C418.002 1096.47 417.135 1094.8 415.402 1093.6C413.735 1092.33 411.669 1091.37 409.202 1090.7C406.802 1090.03 404.369 1089.3 401.902 1088.5C399.435 1087.63 397.335 1086.17 395.602 1084.1C393.935 1081.97 393.102 1079.2 393.102 1075.8ZM450.566 1069.7V1094.9C450.566 1098.03 450.966 1100.3 451.766 1101.7C452.566 1103.1 454.066 1103.8 456.266 1103.8C458.466 1103.8 460.599 1103.33 462.666 1102.4C463.399 1102.13 463.933 1102.4 464.266 1103.2L466.066 1107.8C466.133 1108 466.166 1108.3 466.166 1108.7C466.166 1109.03 465.833 1109.4 465.166 1109.8C461.966 1111.4 458.166 1112.2 453.766 1112.2C447.833 1112.2 443.933 1110.67 442.066 1107.6C440.733 1105.6 439.966 1103.67 439.766 1101.8C439.499 1099.27 439.366 1096.6 439.366 1093.8V1069.7H433.666C432.666 1069.7 432.166 1069.2 432.166 1068.2V1063C432.166 1062 432.666 1061.5 433.666 1061.5H439.366V1048C439.366 1047 439.866 1046.5 440.866 1046.5H449.066C450.066 1046.5 450.566 1047 450.566 1048V1061.5H460.666C461.666 1061.5 462.166 1062 462.166 1063V1068.2C462.166 1069.2 461.666 1069.7 460.666 1069.7H450.566ZM488.18 1103.1H494.48C495.48 1103.1 495.98 1103.6 495.98 1104.6V1109.5C495.98 1110.5 495.48 1111 494.48 1111H470.68C469.68 1111 469.18 1110.5 469.18 1109.5V1104.6C469.18 1103.6 469.68 1103.1 470.68 1103.1C470.68 1103.1 472.78 1103.1 476.98 1103.1V1069.7H471.58C470.58 1069.7 470.08 1069.2 470.08 1068.2V1063C470.08 1062 470.58 1061.5 471.58 1061.5H486.68C487.68 1061.5 488.18 1062 488.18 1063V1103.1ZM476.08 1052.6C474.813 1051.27 474.18 1049.57 474.18 1047.5C474.18 1045.43 474.813 1043.73 476.08 1042.4C477.413 1041 479.147 1040.3 481.28 1040.3C483.48 1040.3 485.213 1041 486.48 1042.4C487.813 1043.73 488.48 1045.43 488.48 1047.5C488.48 1049.57 487.813 1051.27 486.48 1052.6C485.147 1053.93 483.38 1054.6 481.18 1054.6C479.047 1054.6 477.347 1053.93 476.08 1052.6ZM500.475 1087C500.475 1082 501.241 1077.67 502.775 1074C504.308 1070.33 506.308 1067.57 508.775 1065.7C513.508 1062.17 518.641 1060.4 524.175 1060.4C528.241 1060.4 531.675 1061.03 534.475 1062.3C537.275 1063.57 539.441 1065.03 540.975 1066.7C542.575 1068.37 543.908 1070.77 544.975 1073.9C546.108 1077.03 546.675 1080.7 546.675 1084.9C546.675 1093.83 544.408 1100.63 539.875 1105.3C535.408 1109.9 529.675 1112.2 522.675 1112.2C515.675 1112.2 510.208 1110.1 506.275 1105.9C502.408 1101.63 500.475 1095.33 500.475 1087ZM523.475 1104C527.475 1104 530.375 1102.53 532.175 1099.6C534.041 1096.6 534.975 1092.17 534.975 1086.3C534.975 1080.43 534.041 1076.03 532.175 1073.1C530.375 1070.1 527.408 1068.6 523.275 1068.6C515.608 1068.6 511.775 1074 511.775 1084.8C511.775 1097.6 515.675 1104 523.475 1104ZM552.697 1068.3V1063C552.697 1062 553.197 1061.5 554.197 1061.5H567.797C568.664 1061.5 569.197 1062 569.397 1063L570.297 1068.8C574.031 1063.2 579.364 1060.4 586.297 1060.4C596.631 1060.4 601.797 1066.07 601.797 1077.4V1103.1H607.597C608.597 1103.1 609.097 1103.6 609.097 1104.6V1109.5C609.097 1110.5 608.597 1111 607.597 1111H585.797C584.797 1111 584.297 1110.5 584.297 1109.5V1104.6C584.297 1103.6 584.797 1103.1 585.797 1103.1H590.597V1082.4C590.597 1078.2 590.064 1075.13 588.997 1073.2C587.931 1071.27 585.731 1070.3 582.397 1070.3C579.064 1070.3 576.297 1071.3 574.097 1073.3C571.897 1075.3 570.797 1077.57 570.797 1080.1V1103.1H576.997C577.997 1103.1 578.497 1103.6 578.497 1104.6V1109.5C578.497 1110.5 577.997 1111 576.997 1111H554.297C553.297 1111 552.797 1110.5 552.797 1109.5V1104.6C552.797 1103.6 553.297 1103.1 554.297 1103.1H559.597V1069.7H554.197C553.197 1069.7 552.697 1069.23 552.697 1068.3Z" fill="black"/>
<path d="M133.243 300.3L126.043 300.6C98.2426 300.6 76.7426 291.9 61.5426 274.5C46.5426 256.9 39.0426 231.2 39.0426 197.4C39.0426 181.2 41.0426 166.7 45.0426 153.9C49.2426 140.9 54.4426 130.4 60.6426 122.4C67.0426 114.4 74.5426 107.8 83.1426 102.6C98.3426 93 114.743 88.2 132.343 88.2C139.743 88.2 146.843 88.8 153.643 90C160.443 91.2 168.143 93.9 176.743 98.1C185.343 102.3 192.643 107.9 198.643 114.9C204.843 121.7 210.043 131.5 214.243 144.3C218.643 157.1 220.843 172 220.843 189C220.843 214.2 216.343 235.3 207.343 252.3C198.343 269.1 186.043 281.7 170.443 290.1C174.243 303.9 183.343 317 197.743 329.4C199.943 331.2 200.143 333.3 198.343 335.7L191.443 344.1C190.443 345.3 189.343 345.9 188.143 345.9C187.143 345.9 186.043 345.6 184.843 345C158.443 331.4 141.243 316.5 133.243 300.3ZM129.643 272.4C165.443 272.4 183.343 246.1 183.343 193.5C183.343 140.9 165.143 114.6 128.743 114.6C115.943 114.6 105.343 118.1 96.9426 125.1C88.7426 132.1 83.0426 140.8 79.8426 151.2C76.6426 161.4 75.0426 173.3 75.0426 186.9C75.0426 243.9 93.2426 272.4 129.643 272.4Z" fill="black"/>
<path d="M418.8 730.4L409.2 730.8C372.133 730.8 343.467 719.2 323.2 696C303.2 672.533 293.2 638.267 293.2 593.2C293.2 571.6 295.867 552.267 301.2 535.2C306.8 517.867 313.733 503.867 322 493.2C330.533 482.533 340.533 473.733 352 466.8C372.267 454 394.133 447.6 417.6 447.6C427.467 447.6 436.933 448.4 446 450C455.067 451.6 465.333 455.2 476.8 460.8C488.267 466.4 498 473.867 506 483.2C514.267 492.267 521.2 505.333 526.8 522.4C532.667 539.467 535.6 559.333 535.6 582C535.6 615.6 529.6 643.733 517.6 666.4C505.6 688.8 489.2 705.6 468.4 716.8C473.467 735.2 485.6 752.667 504.8 769.2C507.733 771.6 508 774.4 505.6 777.6L496.4 788.8C495.067 790.4 493.6 791.2 492 791.2C490.667 791.2 489.2 790.8 487.6 790C452.4 771.867 429.467 752 418.8 730.4ZM414 693.2C461.733 693.2 485.6 658.133 485.6 588C485.6 517.867 461.333 482.8 412.8 482.8C395.733 482.8 381.6 487.467 370.4 496.8C359.467 506.133 351.867 517.733 347.6 531.6C343.333 545.2 341.2 561.067 341.2 579.2C341.2 655.2 365.467 693.2 414 693.2Z" fill="black"/>
<path d="M344.492 364.908L373.155 416.127C404.028 407.024 423.706 408.349 460.794 416.127L489.456 364.909L451.238 392.835L439.377 342L416.974 388.745L394.571 342L382.71 392.834L344.492 364.908Z" fill="#F7081D"/>
<path d="M172.289 354.69C169.846 352.252 166.944 350.318 163.751 348.999C160.558 347.679 157.136 347 153.679 347C150.223 347 146.801 347.679 143.607 348.999C140.414 350.318 137.513 352.252 135.07 354.69L129.999 359.747L124.928 354.69C119.992 349.768 113.298 347.003 106.318 347.003C99.3381 347.003 92.644 349.768 87.7084 354.69C82.7728 359.612 80 366.288 80 373.249C80 380.21 82.7728 386.886 87.7084 391.808L92.7794 396.866L126.468 430.463C128.42 432.409 131.578 432.409 133.529 430.463L167.218 396.866L172.289 391.808C174.734 389.372 176.673 386.478 177.996 383.294C179.319 380.109 180 376.696 180 373.249C180 369.802 179.319 366.389 177.996 363.205C176.673 360.02 174.734 357.127 172.289 354.69Z" fill="#F7081D"/>
<mask id="mask0_1023_5002" style="mask-type:alpha" maskUnits="userSpaceOnUse" x="130" y="347" width="50" height="85">
<rect x="130" y="347" width="50" height="84.9162" fill="#D9D9D9"/>
</mask>
<g mask="url(#mask0_1023_5002)">
<path d="M172.289 354.69C169.846 352.252 166.944 350.318 163.751 348.999C160.558 347.679 157.136 347 153.679 347C150.223 347 146.801 347.679 143.607 348.999C140.414 350.318 137.513 352.252 135.07 354.69L129.999 359.747L124.928 354.69C119.992 349.768 113.298 347.003 106.318 347.003C99.3381 347.003 92.644 349.768 87.7084 354.69C82.7728 359.612 80 366.288 80 373.249C80 380.21 82.7728 386.886 87.7084 391.808L92.7794 396.866L126.468 430.463C128.42 432.409 131.578 432.409 133.529 430.463L167.218 396.866L172.289 391.808C174.734 389.372 176.673 386.478 177.996 383.294C179.319 380.109 180 376.696 180 373.249C180 369.802 179.319 366.389 177.996 363.205C176.673 360.02 174.734 357.127 172.289 354.69Z" fill="#DC1021"/>
</g>
</svg>
